X: 1
T: Niel Gow
R: strathspey
C: D. Macintyre
B: Allan's p.3 #5; Carlin #196 (D), #482 (A); Skye p.5.
N: Some books attribute this to Neil Gow; others to a D. (Duncan) Macintyre.
D:
Z: John Chambers <jc:trillian.mit.edu>
M: 4/4
L: 1/8
K: D
 B \
| "D"A<F {c}d>A "Em"B<E E>B | "D"A<F {c}d>A "G"B2- B>c \
| "D"d/c/B/A/ {c}d>A "Em"B<E E>c | "G"d>B "A7"A<F "D"D3 :|
|: A, \
| "D"D<D {E}F>D "Em"EE | "D"D<D F>A d>A "(G,)"B<d \
| "D"A<d F<d "Em"B<E E>c | "G"d/c/B/A/ "A7"{c}d>F "D"D3 :|
